Sweet-Rainbow/icons/burp.svg

<?xml version="1.0" encoding="UTF-8" standalone="no"?>
<!-- Generator: Gravit.io -->

<svg
   xmlns:dc="http://purl.org/dc/elements/1.1/"
   xmlns:cc="http://creativecommons.org/ns#"
   xmlns:rdf="http://www.w3.org/1999/02/22-rdf-syntax-ns#"
   xmlns:svg="http://www.w3.org/2000/svg"
   xmlns="http://www.w3.org/2000/svg"
   xmlns:sodipodi="http://sodipodi.sourceforge.net/DTD/sodipodi-0.dtd"
   xmlns:inkscape="http://www.inkscape.org/namespaces/inkscape"
   style="isolation:isolate"
   viewBox="0 0 36 36"
   width="48"
   height="48"
   version="1.1"
   id="svg9"
   sodipodi:docname="burp.svg"
   inkscape:version="0.92.4 (5da689c313, 2019-01-14)">
  <metadata
     id="metadata15">
    <rdf:RDF>
      <cc:Work
         rdf:about="">
        <dc:format>image/svg+xml</dc:format>
        <dc:type
           rdf:resource="http://purl.org/dc/dcmitype/StillImage" />
        <dc:title></dc:title>
      </cc:Work>
    </rdf:RDF>
  </metadata>
  <defs
     id="defs13" />
  <sodipodi:namedview
     pagecolor="#ffffff"
     bordercolor="#666666"
     borderopacity="1"
     objecttolerance="10"
     gridtolerance="10"
     guidetolerance="10"
     inkscape:pageopacity="0"
     inkscape:pageshadow="2"
     inkscape:window-width="640"
     inkscape:window-height="480"
     id="namedview11"
     showgrid="false"
     inkscape:zoom="29.365243"
     inkscape:cx="25.325443"
     inkscape:cy="32"
     inkscape:current-layer="svg9"
     units="px" />
  <linearGradient
     id="_lgradient_35"
     x1="0"
     y1="0.5"
     x2="1"
     y2="0.5"
     gradientTransform="matrix(43.53,0,0,40.178,2.22,3.753)"
     gradientUnits="userSpaceOnUse">
    <stop
       offset="0%"
       stop-opacity="1"
       style="stop-color:rgb(255,224,49)"
       id="stop2" />
    <stop
       offset="98.69565217391305%"
       stop-opacity="1"
       style="stop-color:rgb(252,82,82)"
       id="stop4" />
  </linearGradient>
  <g
     id="g826"
     transform="matrix(0.82701585,0,0,0.82701585,-1.8359752,-1.7176235)">
    <path
       id="path7"
       d="m 5.72,26.25 v 0 -13.22 c 0,-1.656 1.325,-3.227 2.957,-3.508 L 18.94,7.76 v 0 c 0.949,-0.166 1.588,-1.073 1.425,-2.025 v 0 C 20.202,4.783 19.295,4.144 18.34,4.31 v 0 L 7.148,6.233 C 4.428,6.701 2.22,9.32 2.22,12.08 V 27 v 1.75 0 7.19 c 0,2.76 2.206,5.393 4.923,5.877 L 17.66,43.69 v 0 c 0.955,0.171 1.867,-0.463 2.035,-1.415 v 0 C 19.863,41.323 19.229,40.411 18.28,40.24 v 0 L 8.674,38.534 C 7.044,38.245 5.72,36.666 5.72,35.01 V 28 Z m 20,0.78 v 0 c -0.017,0.966 -0.814,1.737 -1.78,1.72 v 0 c -0.966,-0.017 -1.737,-0.814 -1.72,-1.78 v 0 L 22.529,7.949 C 22.574,5.19 24.815,3.345 27.532,3.831 L 40.828,6.209 C 43.545,6.695 45.75,9.33 45.75,12.09 V 19 19 c 0,0.966 -0.784,1.75 -1.75,1.75 v 0 c -0.966,0 -1.75,-0.784 -1.75,-1.75 v 0 -5.98 c 0,-1.656 -1.323,-3.237 -2.953,-3.529 L 29.003,7.649 C 27.373,7.357 26.028,8.464 26,10.12 Z M 42.25,30 v 0 c 0,-0.966 0.784,-1.75 1.75,-1.75 v 0 c 0.966,0 1.75,0.784 1.75,1.75 v 0 4.47 c 0,0.01 0,0.02 0,0.03 -0.03,1.79 -0.68,3.52 -1.85,4.89 -1.14,1.38 -2.73,2.33 -4.5,2.66 -0.01,0 -0.02,0.01 -0.02,0.01 l -10.15,1.77 c -0.38,0.07 -0.75,0.1 -1.13,0.1 -1.57,0.02 -3.08,-0.6 -4.18,-1.71 -1.1,-1.15 -1.7,-2.68 -1.67,-4.27 V 35 35 c 0,-0.966 0.784,-1.75 1.75,-1.75 v 0 c 0.966,0 1.75,0.784 1.75,1.75 v 0 2.97 c 0,0.01 0,0.02 0,0.03 -0.01,0.66 0.23,1.29 0.68,1.78 0.44,0.42 1.03,0.66 1.64,0.65 0.19,0 0.37,-0.02 0.55,-0.05 0,0 0,0 0,0 l 10.14,-1.77 c 0.97,-0.18 1.84,-0.71 2.46,-1.48 0.65,-0.74 1.01,-1.69 1.03,-2.67 V 30 30 30 Z M 36,37 H 34 V 32.63 L 38.83,27 H 34 V 22 H 26.97 L 34,14.6 V 10 h 2 v 5.4 L 31.63,20 H 36 v 5 h 7.17 L 36,33.37 Z"
       style="fill:url(#_lgradient_35);fill-rule:evenodd"
       inkscape:connector-curvature="0" />
  </g>
</svg>

<?xml version="1.0" encoding="UTF-8" standalone="no"?><!-- Generator: Gravit.io --><svg xmlns="http://www.w3.org/2000/svg" xmlns:xlink="http://www.w3.org/1999/xlink" style="isolation:isolate" viewBox="0 0 48 48" width="48pt" height="48pt"><linearGradient id="_lgradient_35" x1="0" y1="0.5" x2="1" y2="0.5" gradientTransform="matrix(43.53,0,0,40.178,2.22,3.753)" gradientUnits="userSpaceOnUse"><stop offset="0%" stop-opacity="1" style="stop-color:rgb(255,224,49)"/><stop offset="98.69565217391305%" stop-opacity="1" style="stop-color:rgb(252,82,82)"/></linearGradient><path d=" M 5.72 26.25 L 5.72 26.25 L 5.72 13.03 C 5.72 11.374 7.045 9.803 8.677 9.522 L 18.94 7.76 L 18.94 7.76 C 19.889 7.594 20.528 6.687 20.365 5.735 L 20.365 5.735 C 20.202 4.783 19.295 4.144 18.34 4.31 L 18.34 4.31 L 7.148 6.233 C 4.428 6.701 2.22 9.32 2.22 12.08 L 2.22 27 L 2.22 28.75 L 2.22 28.75 L 2.22 35.94 C 2.22 38.7 4.426 41.333 7.143 41.817 L 17.66 43.69 L 17.66 43.69 C 18.615 43.861 19.527 43.227 19.695 42.275 L 19.695 42.275 C 19.863 41.323 19.229 40.411 18.28 40.24 L 18.28 40.24 L 8.674 38.534 C 7.044 38.245 5.72 36.666 5.72 35.01 L 5.72 28 L 5.72 26.25 L 5.72 26.25 L 5.72 26.25 Z  M 25.72 27.03 L 25.72 27.03 C 25.703 27.996 24.906 28.767 23.94 28.75 L 23.94 28.75 C 22.974 28.733 22.203 27.936 22.22 26.97 L 22.22 26.97 L 22.529 7.949 C 22.574 5.19 24.815 3.345 27.532 3.831 L 40.828 6.209 C 43.545 6.695 45.75 9.33 45.75 12.09 L 45.75 19 L 45.75 19 C 45.75 19.966 44.966 20.75 44 20.75 L 44 20.75 C 43.034 20.75 42.25 19.966 42.25 19 L 42.25 19 L 42.25 13.02 C 42.25 11.364 40.927 9.783 39.297 9.491 L 29.003 7.649 C 27.373 7.357 26.028 8.464 26 10.12 L 25.72 27.03 L 25.72 27.03 L 25.72 27.03 L 25.72 27.03 Z  M 42.25 30 L 42.25 30 C 42.25 29.034 43.034 28.25 44 28.25 L 44 28.25 C 44.966 28.25 45.75 29.034 45.75 30 L 45.75 30 L 45.75 34.47 C 45.75 34.48 45.75 34.49 45.75 34.5 C 45.72 36.29 45.07 38.02 43.9 39.39 C 42.76 40.77 41.17 41.72 39.4 42.05 C 39.39 42.05 39.38 42.06 39.38 42.06 L 29.23 43.83 C 28.85 43.9 28.48 43.93 28.1 43.93 C 26.53 43.95 25.02 43.33 23.92 42.22 C 22.82 41.07 22.22 39.54 22.25 37.95 L 22.25 35 L 22.25 35 C 22.25 34.034 23.034 33.25 24 33.25 L 24 33.25 C 24.966 33.25 25.75 34.034 25.75 35 L 25.75 35 L 25.75 37.97 C 25.75 37.98 25.75 37.99 25.75 38 C 25.74 38.66 25.98 39.29 26.43 39.78 C 26.87 40.2 27.46 40.44 28.07 40.43 C 28.26 40.43 28.44 40.41 28.62 40.38 C 28.62 40.38 28.62 40.38 28.62 40.38 L 38.76 38.61 C 39.73 38.43 40.6 37.9 41.22 37.13 C 41.87 36.39 42.23 35.44 42.25 34.46 L 42.25 30 L 42.25 30 L 42.25 30 L 42.25 30 Z  M 36 37 L 34 37 L 34 32.63 L 38.83 27 L 34 27 L 34 22 L 26.97 22 L 34 14.6 L 34 10 L 36 10 L 36 15.4 L 31.63 20 L 36 20 L 36 25 L 43.17 25 L 36 33.37 L 36 37 Z " fill-rule="evenodd" fill="url(#_lgradient_35)"/></svg>
